Numix-Light/scalable/status/dialog-warning-symbolic.svg

<?xml version="1.0" encoding="UTF-8" standalone="no"?>
<svg
   xmlns:dc="http://purl.org/dc/elements/1.1/"
   xmlns:cc="http://creativecommons.org/ns#"
   xmlns:rdf="http://www.w3.org/1999/02/22-rdf-syntax-ns#"
   xmlns:svg="http://www.w3.org/2000/svg"
   xmlns="http://www.w3.org/2000/svg"
   xmlns:sodipodi="http://sodipodi.sourceforge.net/DTD/sodipodi-0.dtd"
   xmlns:inkscape="http://www.inkscape.org/namespaces/inkscape"
   viewBox="0 0 16 16"
   width="16"
   height="16"
   id="svg2"
   version="1.1"
   inkscape:version="0.91 r"
   sodipodi:docname="dialog-warning-symbolic.svg">
  <metadata
     id="metadata10">
    <rdf:RDF>
      <cc:Work
         rdf:about="">
        <dc:format>image/svg+xml</dc:format>
        <dc:type
           rdf:resource="http://purl.org/dc/dcmitype/StillImage" />
      </cc:Work>
    </rdf:RDF>
  </metadata>
  <defs
     id="defs8" />
  <sodipodi:namedview
     pagecolor="#ffffff"
     bordercolor="#666666"
     borderopacity="1"
     objecttolerance="10"
     gridtolerance="10"
     guidetolerance="10"
     inkscape:pageopacity="0"
     inkscape:pageshadow="2"
     inkscape:window-width="640"
     inkscape:window-height="480"
     id="namedview6" />
  <path
     d="m 2.75,0.9999998 c -0.9695,0 -1.75,0.7805 -1.75,1.75 L 1,13.25 C 1,14.2195 1.7805,15 2.75,15 l 10.5,0 C 14.2195,15 15,14.2195 15,13.25 L 15,2.7499998 c 0,-0.9695 -0.7805,-1.75 -1.75,-1.75 z M 7,3 9,3 9,10 7,10 z m 0,8 2,0 0,2 -2,0 z"
     fill="#353535"
     id="path4" />
</svg>

<svg xmlns="http://www.w3.org/2000/svg" viewBox="0 0 16 16">
 <path d="m 2.75 1 c -0.97 0 -1.75 0.78 -1.75 1.75 l 0 10.5 c 0 0.97 0.781 1.75 1.75 1.75 l 10.5 0 c 0.97 0 1.75 -0.781 1.75 -1.75 l 0 -10.5 c 0 -0.97 -0.781 -1.75 -1.75 -1.75 z m 4.25 2 2 0 0 7 -2 0 z m 0 8 2 0 0 2 -2 0 z" style="fill:#353535"/>
</svg>
